styles/icons/home.svg

<?xml version="1.0" encoding="UTF-8"?>
<svg width="24px" height="24px" viewBox="0 0 24 24" version="1.1" xmlns="http://www.w3.org/2000/svg" xmlns:xlink="http://www.w3.org/1999/xlink">
    <!-- Generator: Sketch 48.1 (47250) - http://www.bohemiancoding.com/sketch -->
    <title>Icon/menu/home</title>
    <desc>Created with Sketch.</desc>
    <defs></defs>
    <g id="Core/Icons" stroke="none" stroke-width="1" fill="none" fill-rule="evenodd" transform="translate(-220.000000, -1060.000000)">
        <g id="Menu" transform="translate(60.000000, 774.000000)" fill="#333333">
            <g id="Icon/menu/home-a01" transform="translate(160.000000, 286.000000)">
                <path d="M4,12 L1,12 L1,11.2607553 L12,2.39793909 L23,11.2607553 L23,12 L20,12 L20,22 L14,22 L14,16 L10,16 L10,22 L4,22 L4,12 Z M2.91750651,11 L5,11 L5,21 L9,21 L9,15 L15,15 L15,21 L19,21 L19,11 L19.75,11 L21.0824935,11 L12,3.68213904 L2.91750651,11 Z" id="Icon"></path>
            </g>
        </g>
    </g>
</svg>

<svg fill="#333333" height="24" width="24" viewBox="0 0 24 24" xmlns="http://www.w3.org/2000/svg">
    <path d="M4,12H1v-0.7l11-8.9l11,8.9V12h-3v10h-6v-6h-4v6H4V12z M2.9,11H5v10h4v-6h6v6h4V11h0.8h1.3L12,3.7L2.9,11z"/>
</svg>
